X:1
T:Langstrom's Pony, pt.1
R:jig
M:6/8
L:1/8
K:Amix
fed cAA|EAA cAA|fed cAA|BGB dcB|
fed cAA|EAA cAA|faf gfe|dBG Bcd:|
cee dff|cee ecA|cee g2e|dBG Bcd|
cee dff|cee efg|faf gfe|dBG Bcd:|
<abc>
